dhis-2/dhis-support/dhis-support-system/src/main/resources/SVGs/pregnant_2426w_negative.svg

<svg width="48" height="48" viewBox="0 0 48 48" fill="none" xmlns="http://www.w3.org/2000/svg">
<path fill-rule="evenodd" clip-rule="evenodd" d="M0 0V47.9994H47.9994V0H0ZM23.9997 4.00975C31.8826 4.00945 38.2735 10.3999 38.2725 18.2826C38.2735 26.1655 31.8826 32.5564 23.9997 32.5564C16.1168 32.5564 9.72588 26.1655 9.72688 18.2826C9.72618 10.3997 16.1168 4.00875 23.9997 4.00975ZM23.9997 5.96873C17.1988 5.96913 11.6859 11.4819 11.6859 18.2826C11.6859 25.0835 17.1988 30.5964 23.9997 30.5974C30.8006 30.5964 36.3135 25.0835 36.3135 18.2826C36.3135 11.4817 30.8006 5.96873 23.9997 5.96873ZM22.9117 6.66982C23.2217 6.66772 23.5177 6.94901 23.3007 7.30851C22.9807 7.8732 22.4857 8.3306 22.3027 9.06039C22.0877 9.89858 23.3457 9.80478 24.6187 10.0329C28.6766 10.7699 26.7837 12.8658 25.9017 12.8958C24.0447 13.1968 21.6977 12.6588 21.3707 16.5678C21.3877 17.5888 21.7837 18.5148 22.0117 19.4818C22.1307 20.4017 21.9987 21.3107 21.4647 22.2007C21.7297 22.1667 21.9717 22.1497 22.3087 22.0657C23.3357 21.7367 23.7417 21.4617 23.4407 20.8827C22.3647 19.6228 23.1497 18.1288 23.7297 17.4898C24.7477 16.4368 25.2717 15.8278 26.2707 15.5018C27.4547 15.1538 28.4746 16.1558 27.8726 17.0098C26.7137 18.3838 25.1757 19.0508 26.1247 20.1017C26.5147 20.3607 26.6517 20.4477 26.9467 20.7597C27.7017 21.9127 27.7487 22.2827 28.0956 23.3007C28.1026 24.0347 28.4886 24.8537 26.4037 26.0077C24.2287 26.6877 22.6157 27.9347 19.8238 27.9996C17.0628 27.7587 14.9558 25.6687 15.5818 23.7577L16.3478 21.5367C16.9118 20.0097 16.3228 19.5318 15.2358 19.5098L13.6678 19.4668C12.3878 19.4388 11.9119 17.2338 13.3998 16.6758C14.8118 16.2068 16.3758 16.5378 18.1388 16.9038C19.0178 17.0598 19.8838 17.6648 20.2377 18.9358C20.5977 20.2457 20.4147 21.0107 20.3707 21.9157C20.4177 22.1277 20.6067 22.2197 20.8627 22.2497C21.3657 21.2007 21.6157 20.2327 21.4647 19.3928C21.0077 18.1108 20.7457 17.1028 20.7947 16.5348C21.1757 12.6518 23.1167 12.6048 25.0037 12.4278C27.2777 12.2228 26.4807 10.8449 24.2677 10.7639C23.5007 10.7669 21.0437 10.6449 21.3477 9.21278C21.5867 8.219 22.1307 7.7253 22.4467 7.02331C22.5337 6.77421 22.7257 6.67112 22.9117 6.66982ZM31.8296 16.5898C32.7296 16.5888 33.6276 16.9288 34.3136 17.6148C35.6876 18.9868 35.6916 21.2157 34.3196 22.5897C32.9476 23.9647 30.7186 23.9697 29.3456 22.5977C27.9716 21.2257 27.9736 18.9958 29.3456 17.6228C30.0316 16.9358 30.9296 16.5918 31.8296 16.5918V16.5898ZM3.99995 33.9996H43.9995V43.9995H3.99995V33.9996ZM7.8144 35.0956C7.30291 35.0956 6.84491 35.2066 6.44132 35.4256C6.03772 35.6416 5.72453 35.9395 5.50193 36.3215C5.28263 36.7045 5.17374 37.1265 5.17374 37.5895H6.68742C6.68742 37.2065 6.78552 36.9005 6.98041 36.6675C7.17871 36.4305 7.44801 36.3115 7.789 36.3115C8.1056 36.3115 8.3489 36.4085 8.51939 36.6035C8.68989 36.7945 8.77529 37.0605 8.77529 37.3975C8.77529 37.6445 8.69269 37.9045 8.52919 38.1795C8.36909 38.4545 8.1206 38.7775 7.7831 39.1455L5.32613 41.7655V42.7985H10.5349V41.5835H7.26751L8.99399 39.7615C9.46728 39.2425 9.80108 38.7895 9.99597 38.3995C10.1909 38.0105 10.2889 37.6275 10.2889 37.2515C10.2889 36.5655 10.0719 36.0355 9.63658 35.6596C9.20518 35.2836 8.59719 35.0956 7.8144 35.0956ZM24.2462 35.0956C23.7352 35.0956 23.2772 35.2066 22.8732 35.4256C22.4692 35.6416 22.1562 35.9395 21.9342 36.3215C21.7142 36.7045 21.6042 37.1265 21.6042 37.5895H23.1172C23.1172 37.2065 23.2152 36.9005 23.4102 36.6675C23.6082 36.4305 23.8782 36.3115 24.2192 36.3115C24.5352 36.3115 24.7792 36.4085 24.9492 36.6035C25.1202 36.7945 25.2052 37.0605 25.2052 37.3975C25.2052 37.6445 25.1242 37.9045 24.9612 38.1795C24.8012 38.4545 24.5522 38.7775 24.2152 39.1455L21.7562 41.7655V42.7985H26.9652V41.5835H23.6972L25.4262 39.7615C25.8992 39.2425 26.2332 38.7895 26.4282 38.3995C26.6232 38.0105 26.7192 37.6275 26.7192 37.2515C26.7192 36.5655 26.5012 36.0355 26.0662 35.6596C25.6352 35.2836 25.0292 35.0956 24.2462 35.0956ZM31.7341 35.1226C30.9651 35.1266 30.2901 35.2996 29.7051 35.6476C29.1241 35.9925 28.6761 36.4815 28.3631 37.1145C28.0541 37.7445 27.8982 38.4715 27.8982 39.2965V39.8395C27.8982 40.7685 28.1441 41.5115 28.6351 42.0675C29.1291 42.6245 29.7761 42.9035 30.5761 42.9035C31.0701 42.9035 31.5131 42.7925 31.9021 42.5695C32.2961 42.3475 32.5981 42.0365 32.8111 41.6365C33.0261 41.2365 33.1351 40.7885 33.1351 40.2945C33.1351 39.5215 32.9391 38.8985 32.5491 38.4255C32.1591 37.9525 31.6341 37.7165 30.9731 37.7165C30.3571 37.7165 29.8471 37.9205 29.4431 38.3315C29.5271 37.7195 29.7751 37.2405 30.1891 36.8955C30.6071 36.5515 31.1581 36.3755 31.8401 36.3645H31.9861V35.1226H31.7341ZM14.4023 35.2006L11.2344 40.2045L11.3014 41.1555H14.4183V42.7985H15.9263V41.1555H16.7873V39.9385H15.9263V35.2006H14.4023ZM33.6971 35.2006L35.3831 42.7985H36.959L38.197 37.7165L39.434 42.7985H41.01L42.695 35.2006H41.135L40.111 40.6065L38.865 35.2006H37.539L36.287 40.5975L35.2581 35.2006H33.6971ZM14.4183 37.2555V39.9385H12.7363L14.3183 37.4295L14.4183 37.2555ZM30.5141 38.9275C30.8551 38.9275 31.1261 39.0545 31.3281 39.3085C31.5301 39.5625 31.6311 39.8955 31.6311 40.3105C31.6311 40.7175 31.5301 41.0485 31.3281 41.3065C31.1301 41.5605 30.8691 41.6875 30.5451 41.6875C30.1871 41.6875 29.9071 41.5465 29.7091 41.2655C29.5111 40.9795 29.4121 40.5845 29.4121 40.0795V39.6205C29.5061 39.4115 29.6531 39.2435 29.8521 39.1185C30.0501 38.9895 30.2701 38.9275 30.5141 38.9275ZM17.6583 38.9375V40.1535H20.5982V38.9375H17.6583Z" fill="#333333"/>
</svg>

<?xml version="1.0" encoding="UTF-8" standalone="no"?>
<!-- Created with Inkscape (http://www.inkscape.org/) -->
<svg id="svg8" xmlns:rdf="http://www.w3.org/1999/02/22-rdf-syntax-ns#" xmlns="http://www.w3.org/2000/svg" xmlns:osb="http://www.openswatchbook.org/uri/2009/osb" height="48" width="48" version="1.1" xmlns:cc="http://creativecommons.org/ns#" viewBox="0 0 12.7 12.7" xmlns:dc="http://purl.org/dc/elements/1.1/">
 <title id="title4753">UIO-icon</title>
 <metadata id="metadata5">
  <rdf:RDF>
   <cc:Work rdf:about="">
    <dc:format>image/svg+xml</dc:format>
    <dc:type rdf:resource="http://purl.org/dc/dcmitype/StillImage"/>
    <dc:title>UIO-icon</dc:title>
    <dc:creator>
     <cc:Agent>
      <dc:title>Joaquín Urbano</dc:title>
     </cc:Agent>
    </dc:creator>
    <dc:rights>
     <cc:Agent>
      <dc:title>GPL</dc:title>
     </cc:Agent>
    </dc:rights>
   </cc:Work>
  </rdf:RDF>
 </metadata>
 <g id="layer1" transform="translate(0,-284.3)">
  <path id="rect4934" d="m0 0v48h48v-48h-48zm24 4.0098c7.883-0.0003 14.274 6.3902 14.273 14.273 0.001 7.883-6.39 14.274-14.273 14.274s-14.274-6.391-14.273-14.274c-0.0007-7.883 6.39-14.274 14.273-14.273zm0 1.959c-6.801 0.0004-12.314 5.5132-12.314 12.314 0 6.801 5.513 12.314 12.314 12.315 6.801-0.001 12.314-5.514 12.314-12.315s-5.513-12.314-12.314-12.314zm-1.088 0.7011c0.31-0.0021 0.606 0.2792 0.389 0.6387-0.32 0.5647-0.815 1.0221-0.998 1.7519-0.215 0.8382 1.043 0.7444 2.316 0.9725 4.058 0.737 2.165 2.833 1.283 2.863-1.857 0.301-4.204-0.237-4.531 3.672 0.017 1.021 0.413 1.947 0.641 2.914 0.119 0.92-0.013 1.829-0.547 2.719 0.265-0.034 0.507-0.051 0.844-0.135 1.027-0.329 1.433-0.604 1.132-1.183-1.076-1.26-0.291-2.754 0.289-3.393 1.018-1.053 1.542-1.662 2.541-1.988 1.184-0.348 2.204 0.654 1.602 1.508-1.159 1.374-2.697 2.041-1.748 3.092 0.39 0.259 0.527 0.346 0.822 0.658 0.755 1.153 0.802 1.523 1.149 2.541 0.007 0.734 0.393 1.553-1.692 2.707-2.175 0.68-3.788 1.927-6.58 1.992-2.761-0.241-4.868-2.331-4.242-4.242l0.766-2.221c0.564-1.527-0.025-2.005-1.112-2.027l-1.568-0.043c-1.28-0.028-1.756-2.233-0.268-2.791 1.412-0.469 2.976-0.138 4.739 0.228 0.879 0.156 1.745 0.761 2.099 2.032 0.36 1.31 0.177 2.075 0.133 2.98 0.047 0.212 0.236 0.304 0.492 0.334 0.503-1.049 0.753-2.017 0.602-2.857-0.457-1.282-0.719-2.29-0.67-2.858 0.381-3.883 2.322-3.93 4.209-4.107 2.274-0.205 1.477-1.583-0.736-1.664-0.767 0.003-3.224-0.119-2.92-1.5511 0.239-0.9938 0.783-1.4875 1.099-2.1895 0.087-0.2491 0.279-0.3522 0.465-0.3535zm8.918 9.9201c0.9-0.001 1.798 0.339 2.484 1.025 1.374 1.372 1.378 3.601 0.006 4.975-1.372 1.375-3.601 1.38-4.974 0.008-1.374-1.372-1.372-3.602 0-4.975 0.686-0.687 1.584-1.031 2.484-1.031v-0.002zm-27.83 17.41h40v10h-40v-10zm3.8145 1.096c-0.5115 0-0.9695 0.111-1.3731 0.33-0.4036 0.216-0.7168 0.514-0.9394 0.896-0.2193 0.383-0.3282 0.805-0.3282 1.268h1.5137c0-0.383 0.0981-0.689 0.293-0.922 0.1983-0.237 0.4676-0.356 0.8086-0.356 0.3166 0 0.5599 0.097 0.7304 0.292 0.1705 0.191 0.2559 0.457 0.2559 0.794 0 0.247-0.0826 0.507-0.2461 0.782-0.1601 0.275-0.4086 0.598-0.7461 0.966l-2.457 2.62v1.033h5.2088v-1.215h-3.2674l1.7265-1.822c0.4733-0.519 0.8071-0.972 1.002-1.362 0.1949-0.389 0.2929-0.772 0.2929-1.148 0-0.686-0.217-1.216-0.6523-1.592-0.4314-0.376-1.0394-0.564-1.8222-0.564zm16.432 0c-0.511 0-0.969 0.111-1.373 0.33-0.404 0.216-0.717 0.514-0.939 0.896-0.22 0.383-0.33 0.805-0.33 1.268h1.513c0-0.383 0.098-0.689 0.293-0.922 0.198-0.237 0.468-0.356 0.809-0.356 0.316 0 0.56 0.097 0.73 0.292 0.171 0.191 0.256 0.457 0.256 0.794 0 0.247-0.081 0.507-0.244 0.782-0.16 0.275-0.409 0.598-0.746 0.966l-2.459 2.62v1.033h5.209v-1.215h-3.268l1.729-1.822c0.473-0.519 0.807-0.972 1.002-1.362 0.195-0.389 0.291-0.772 0.291-1.148 0-0.686-0.218-1.216-0.653-1.592-0.431-0.376-1.037-0.564-1.82-0.564zm7.488 0.027c-0.769 0.004-1.444 0.177-2.029 0.525-0.581 0.345-1.029 0.834-1.342 1.467-0.309 0.63-0.465 1.357-0.465 2.182v0.543c0 0.929 0.246 1.672 0.737 2.228 0.494 0.557 1.141 0.836 1.941 0.836 0.494 0 0.937-0.111 1.326-0.334 0.394-0.222 0.696-0.533 0.909-0.933 0.215-0.4 0.324-0.848 0.324-1.342 0-0.773-0.196-1.396-0.586-1.869s-0.915-0.709-1.576-0.709c-0.616 0-1.126 0.204-1.53 0.615 0.084-0.612 0.332-1.091 0.746-1.436 0.418-0.344 0.969-0.52 1.651-0.531h0.146v-1.242h-0.252zm-17.332 0.078l-3.168 5.004 0.067 0.951h3.117v1.643h1.508v-1.643h0.861v-1.217h-0.861v-4.738h-1.524zm19.295 0l1.686 7.598h1.576l1.238-5.082 1.237 5.082h1.576l1.685-7.598h-1.56l-1.024 5.406-1.246-5.406h-1.326l-1.252 5.397-1.029-5.397h-1.561zm-19.279 2.055v2.683h-1.682l1.582-2.509 0.1-0.174zm16.096 1.672c0.341 0 0.612 0.127 0.814 0.381s0.303 0.587 0.303 1.002c0 0.407-0.101 0.738-0.303 0.996-0.198 0.254-0.459 0.381-0.783 0.381-0.358 0-0.638-0.141-0.836-0.422-0.198-0.286-0.297-0.681-0.297-1.186v-0.459c0.094-0.209 0.241-0.377 0.44-0.502 0.198-0.129 0.418-0.191 0.662-0.191zm-12.856 0.01v1.216h2.94v-1.216h-2.94z" fill-rule="evenodd" transform="matrix(.26458 0 0 .26458 0 284.3)" fill="#333"/>
 </g>
</svg>
